X: 26453
T: Meteor, The
R: reel
M: 4/4
K: Amajor
E|:A2 ae ceAc|dFBA GBBc|A2 ae ceAc|^deBe GEFG|
A2 ae decA|dcBA GEE^E|FDFd ECEc|1 DBGE cAAE:|2 DBGE cAAF||
|:ECEA FDFA|dFBA GBBe|ECEA FDFA|^deBe GEED|
ECEA FDFA|dcBA GEE^E|FDFd ECEc|DBGE cA A2:|

